!!!!SEGMENT: pl-kk--kk-i-389--007-006_anonim--missa-no-7-benedictus.krn
!!!cenid: 17xx:2504
!!!COM: Anonim
!!!COM-rismID: pe30004985
!!!CDT:
!!!CNT:
!!!OPR: [Missa] No. 7.
!!!OTL: Benedictus
!!!OMV: 006
!!!PDT:
!!!AGN: Sacred; Mass
!!!YEC: Copyright 2022 Narodowy Instytut Fryderyka Chopina (https://polishscores.org)
!!!YEM: License CC-BY-4.0 (https://creativecommons.org/licenses/by/4.0)
!!!SMS-siglum: PL-Kk
!!!SMS-shelfmark: Kk.I.389
!!!SMS-variant:
!!!SMS-altvar:
!!!SMS-shelfwork: 007-006 M
!!!NIFC-rismSourceID: 1001146182
!!!NIFC-rismChildID: 1001147245
!!!NIFC-islandoraID: pl-kk:6976
!!!URL-pdf-islandora: https://repozytorium.nifc.pl/islandora/object/pl-kk%3A6976/datastream/PDF/view
!!!URL-scan: https://polish.musicsources.pl/pl/lokalizacje/galeria/rekopisy/5999/1 @EN{Scan on Polish Music Sources Website} @PL{Skany w portalu Dziedzictwo Muzyki Polskiej w otwartym dostępie}
!!!IIIF:
!!!ONB-nifc: UWAGA: S – skan 12-13, A – 31-32, T – 50-51, B – 69-70. Części Mszy: Rorate, Kyrie, Gloria, Graduale, Sanctus, Benedictus, Agnus.
!!!AIN: 1 alto 1 bass 1 soprn 1 tenor
!!!key: a
**kern	**text	**kern	**text	**kern	**text	**kern	**text
*part4	*part4	*part3	*part3	*part2	*part2	*part1	*part1
*staff4	*staff4	*staff3	*staff3	*staff2	*staff2	*staff1	*staff1
*Ibass	*	*Itenor	*	*Ialto	*	*Isoprn	*
*I"Basso.	*	*I"Tenore.	*	*I"Alto.	*	*I"Soprano.	*
*I'B.	*	*I'T.	*	*I'A.	*	*I'S.	*
*I'bass	*	*I'tenor	*	*I'alto	*	*I'soprn	*
*I'Cvox	*	*I'Cvox	*	*I'Cvox	*	*I'Cvox	*
*clefF4	*	*clefC4	*	*clefC3	*	*clefC1	*
*k[]	*	*k[]	*	*k[]	*	*k[]	*
*a:	*	*a:	*	*a:	*	*a:	*
*M3/2	*	*M3/2	*	*M3/2	*	*M3/2	*
=1	=1	=1	=1	=1	=1	=1	=1
*	*	*	*	*	*	*all\right global	*
2AA/	Be-	1A	Be-	4a\	Be-	1cc	Be-
.	.	.	.	4e\	.	.	.
*	*	*	*	*2\right	*	*	*
2C/	.	.	.	2e\	.	.	.
*2\right	*	*	*	*	*	*2\right	*
2E\	-ne	2G#X/	-ne-	2d\	-ne	2b\	-ne-
=2	=2	=2	=2	=2	=2	=2	=2
2G#X\	dic-	2E/	-dic-	2d\	dic-	2b\	-dic-
2A\	-tus,	2E/	-tus	2c\	-tus	2a\	-tus
4r	.	4r	.	4r	.	4r	.
4A\	qui	4A\	qui	4e\	qui	4cc\	qui
=3	=3	=3	=3	=3	=3	=3	=3
2D\	ve-	2F/	ve-	2d\	ve-	2b\	ve-
1E	.	1E	.	2c\	.	2a\	.
.	.	.	.	2B/	.	2g#X\	.
=4	=4	=4	=4	=4	=4	=4	=4
2AA/	-nit	2E/	-nit	2c\	-nit	2a\	-nit,
2r	.	2r	.	2r	.	2r	.
*	*	*2\right	*	*	*	*	*
2r	.	2A\	qui	2e\	qui	2cc\	qui
=5	=5	=5	=5	=5	=5	=5	=5
!LO:TX:a:t=1.	!	!	!	!	!	!	!
1.r	.	2A/	ve-	2e\	ve-	2cc\	ve-
.	.	2G#X/	-nit	2e\	-nit	2b\	-nit
.	.	2B\	in	2e\	in	2dd\	qui
!	!	!LO:LB:g=original	!	!LO:LB:g=original	!	!	!
=6	=6	=6	=6	=6	=6	=6	=6
2r	.	2B\	no-	2e\	no-	2dd\	ve-
!	!	!	!	!	!	!LO:LB:g=original	!
2r	.	2A\	-mi-	2e\	-mi-	2cc\	-nit
2AA/	in	2A\	-ne	2e\	-ne	2cc\	in
!LO:LB:g=original	!	!	!	!	!	!	!
=7	=7	=7	=7	=7	=7	=7	=7
2AA/	no-	2A/	no-	4a\	Do-	2cc\	no-
.	.	.	.	4e\	.	.	.
4D\	-mi-	4G#X/	-mi-	4f\	.	4dd\	-mi-
4D\	-ne	4A/	-ne	4e\	.	4cc\	-ne
4D\	Do-	4G#/	Do-	4d\	.	4b\	Do-
4D#X\	-mi-	4A/	-mi-	4c\	-mi-	4a\	-mi-
=8	=8	=8	=8	=8	=8	=8	=8
2E\	-ni,	2E/	-ni	2B/	-ni	2g#X\	-ni
2r	.	2r	.	2r	.	2r	.
2E\	qui	2B\	qui	2B/	qui	2g#\	qui
=9	=9	=9	=9	=9	=9	=9	=9
2E\	ve-	2B\	ve-	2B/	ve-	2g#X\	ve-
2E\	-nit	2A\	-nit	2c/	-nit	2a\	-nit
2E\	in	2G#X/	in	2d\	in	2b\	in
!!linebreak:original
=10	=10	=10	=10	=10	=10	=10	=10
2.A\	no-	2.A\	no-	2.e\	no-	2.cc\	no-
4AA/	-mi-	4c\	-mi-	4a\	-mi-	4ee\	-mi-
2AA/	-ne	2A\	-ne	2e\	-ne	2cc\	-ne
=11	=11	=11	=11	=11	=11	=11	=11
.	.	.	.	8qg/	.	8qee/	.
2D\	Do-	2B\	Do-	4f\	Do-	4dd\	Do-
.	.	.	.	8e\L	.	8cc\L	.
.	.	.	.	8d\J	.	8b\J	.
2E\	.	2e\	.	2c/	.	2a\	.
2E\	-mi-	2e\	-mi-	2B/	-mi-	2g#X\	-mi-
!	!	!	!	!LO:LB:g=original	!	!LO:LB:g=original	!
=12	=12	=12	=12	=12	=12	=12	=12
2AA/	-ni	2e\	-ni,	2c/	-ni	2a\	-ni,
!	!	!LO:PB:g=original	!	!	!	!	!
2r	.	2r	.	2r	.	2r	.
2E\	qui	2B\	qui	2B/	qui	2g#X\	qui
=13	=13	=13	=13	=13	=13	=13	=13
2E\	ve-	2B\	ve-	2B/	ve-	2g#X\	ve-
2E\	-nit	2A\	-nit	2c/	-nit	2a\	-nit
2E\	in	2G#X/	in	2d\	in	2b\	in
!LO:LB:g=original	!	!	!	!	!	!	!
=14	=14	=14	=14	=14	=14	=14	=14
2.A\	no-	2.A\	no-	2.e\	no-	2.cc\	no-
4AA/	-mi-	4c\	-mi-	4a\	-mi-	4ee\	-mi-
2AA/	-ne	2A\	-ne	2e\	-ne	2cc\	-ne
=15	=15	=15	=15	=15	=15	=15	=15
.	.	.	.	8qg/	.	8qee/	.
2D\	Do-	2B\	do-	4f\	Do-	4dd\	Do-
.	.	.	.	8e\L	.	8cc\L	.
.	.	.	.	8d\J	.	8b\J	.
2E\	-mi-	2e\	.	2c\	.	2a\	.
2E\	-ni.	2e\	-mi-	2B/	-mi-	2g#X\	-mi-
=16	=16	=16	=16	=16	=16	=16	=16
1AA	.	1A	-ni	1c	-ni	2a\	-ni.
.	.	.	.	.	.	2r	.
!LO:TX:t=Osanna Da Capo.	!	!LO:TX:t=Osanna Da Capo.	!	!LO:TX:t=Osanna Da Capo.	!	!LO:TX:t=Osanna Da Capo.	!
==	==	==	==	==	==	==	==
*-	*-	*-	*-	*-	*-	*-	*-
!!!system-decoration: [(s1,s2,s3,s4)]
!!!ENC: Berenika Jozajtis
!!!END: 2023-11-09
!!!ENC: Leszek Kubiak
!!!END: 2024-01-10
